X:1
T: On my Cross : T
M:4/4
L:1/4
Q:1/4=100
Z: Contributed 2009-02-14 15:11:33 by ming tsang tsang94@rogers.com
K:F
z4 | z4 |
z4 | z4 | z4 |
z4 | z4 | z4 |
z4 | z4 | z4 |
z4 | z4 |
[|:  z F,/F,/- F,2 | z A,/A,/- A,2 |
z4 | B, B,/B,/- B,/ B, A,/- |
A,2 z2 | z4 | z4 |
z4 | z2 z/ A,/ G,/B,/- |
B,3 z | z4 |
z4 | z2 z/ A, G,/B,/- |
B,3 z | z4 | z4 |
z2 z/ B,/ G,/A,/- || A,< A, z/ A, G,/A,/- |
A,< A, z/ A,/ G,/B,/- | B,< B, z B,/  C/C/- |
C2 z C/ G,/A,/- |A,< A, z/ A,/ G,/C/- |
C<C  z/ A,/ G,/B,/- |B,< B, z/ B,/ C/C/- |
C3 z | (A,4 | B,2) z/ F,/ F,/E,/ |
F,2- F,/(A,/ G,/)G,/- | G,2 z2 | (A,4 |
B,2) z/ C,/ E,/F,/- | F,< C, z/ (A,/ G,/)G,/- |1 G,2 z2 |
z4 | z4 | z4 |
z4 | z4 :|]2 -G,2 z2 |
z4 | z4 | z4 |
z4 | z4 | z4 |
z4 | z4 | z4 |
z2 z/ C/ A,/=B,/- || [K:G] B,< B, z/ B,/ A,/B,/- |
B,< B, z/ B,/ A,/C/- | C< C z C/ D/D/- |
D2 z/ D/ A,/B,/- | B,< B, z/ B,/ A,/D/- |
D< D  z/ B,/ A,/C/- |C< C z C/ D/D/- |
D3 z | (B,4 | C2) z/ G,/ G,/F,/ |
G,- G,/(B,/ A,/)A,/- | A,2 z2 | (B,4 |
C2) z/ D,/ F,/G,/- |G,< D, z/ (B,/ A,/)A,/- | A,2 z2 |
z4 | z4 | z4 |
z4 | (B,4 | C2) z/ D,/ F,/G,/- |
G,< D, z/ (B,/ A,/)A,/- | A,4 | z4 |
z4 | Z4 | z4 |
D2 B, A, | B, D B,2- | B,4 | z4 |]


